assets/icons/24px/stroke/play-24px.svg

<svg width="24" height="24" viewBox="0 0 24 24" fill="none" xmlns="http://www.w3.org/2000/svg">
<path fill-rule="evenodd" clip-rule="evenodd" d="M11.3553 4.38681L17.2656 7.67028C18.5946 8.40857 19.6915 9.0179 20.4464 9.59686C21.2194 10.1897 21.8818 10.9359 21.8818 12C21.8818 13.0642 21.2194 13.8103 20.4464 14.4032C19.6915 14.9822 18.5946 15.5915 17.2656 16.3298L11.3553 19.6133C10.0937 20.3142 9.04777 20.8953 8.193 21.2167C7.31174 21.5481 6.36538 21.7084 5.47862 21.1866C4.59186 20.6648 4.27239 19.7597 4.13407 18.8284C3.99991 17.9251 3.99995 16.7286 4 15.2853V8.71471C3.99995 7.27149 3.99991 6.07491 4.13407 5.17161C4.27239 4.24032 4.59186 3.33522 5.47862 2.81344C6.36538 2.29167 7.31173 2.45196 8.193 2.78332C9.04778 3.10473 10.0938 3.68588 11.3553 4.38681ZM7.48909 4.65536C6.80023 4.39634 6.59186 4.47894 6.49288 4.53719C6.39389 4.59543 6.22049 4.73746 6.11237 5.46543C6.00267 6.20404 6 7.25013 6 8.79809V15.202C6 16.7499 6.00267 17.796 6.11237 18.5346C6.22049 19.2626 6.39389 19.4046 6.49288 19.4629C6.59186 19.5211 6.80023 19.6037 7.4891 19.3447C8.18804 19.0819 9.10378 18.5762 10.4569 17.8244L16.2204 14.6225C17.642 13.8328 18.6062 13.294 19.2293 12.8162C19.8481 12.3416 19.8818 12.1127 19.8818 12C19.8818 11.8874 19.8481 11.6585 19.2293 11.1839C18.6062 10.706 17.642 10.1673 16.2204 9.37755L10.4569 6.17561C9.10378 5.42386 8.18804 4.91817 7.48909 4.65536Z" fill="white"/>
</svg>

<svg width="24" height="24" fill="none" xmlns="http://www.w3.org/2000/svg"><path fill-rule="evenodd" clip-rule="evenodd" d="M11.355 4.387l5.91 3.283c1.33.739 2.427 1.348 3.181 1.927.773.593 1.436 1.339 1.436 2.403s-.663 1.81-1.436 2.403c-.755.58-1.851 1.188-3.18 1.927l-5.91 3.283c-1.262.701-2.308 1.282-3.163 1.604-.881.331-1.828.491-2.714-.03-.887-.522-1.207-1.427-1.345-2.359C4 17.925 4 16.728 4 15.285v-6.57c0-1.444 0-2.64.134-3.543.138-.932.458-1.837 1.345-2.359.886-.521 1.833-.361 2.714-.03.855.322 1.9.903 3.162 1.604zm-3.866.268c-.689-.259-.897-.176-.996-.118-.1.058-.273.2-.38.928C6.002 6.204 6 7.25 6 8.798v6.404c0 1.548.003 2.594.112 3.333.108.728.282.87.38.928.1.058.308.14.997-.118.699-.263 1.615-.769 2.968-1.52l5.763-3.202c1.422-.79 2.386-1.329 3.01-1.807.618-.474.652-.703.652-.816 0-.113-.034-.341-.653-.816-.623-.478-1.587-1.017-3.009-1.806l-5.763-3.202c-1.353-.752-2.269-1.258-2.968-1.52z" fill="#fff"/></svg>
